icons/hero-pattern/glamorous.svg

<svg xmlns="http://www.w3.org/2000/svg" xmlns:svgjs="http://svgjs.com/svgjs" xmlns:xlink="http://www.w3.org/1999/xlink" viewBox="0 0 288 288"><defs/><svg xmlns="http://www.w3.org/2000/svg" viewBox="0 0 180 180"><path fill="#6246ea" fill-rule="evenodd" d="M81.2792408 88H68.4142136l19.2975408 19.297541L81.2792408 88zm2.1081851 0h13.2251482L90 107.837722 83.3874259 88zm15.3333333 0h12.8650268l-19.2975404 19.297541L98.7207592 88zm-32.927866-2.2071068L73.5857864 78H106.414214l.5.5 7.292893 7.2928932L115.414214 87l-24.7071072 24.707107L90 112.414214 64.5857864 87l1.2071068-1.2071068zM68.4142136 86L74 80.4142136 79.5857864 86H68.4142136zm16 0L90 80.4142136 95.5857864 86H84.4142136zm16.0000004 0L106 80.4142136 111.585786 86h-11.171572zm-8.0000004-6h11.1715724L98 85.5857864 92.4142136 80zM82 85.5857864L87.5857864 80H76.4142136L82 85.5857864zM17.4142136 0L.70710678 16.7071068 0 17.4142136V0h17.4142136zM4.27924078 0L0 12.8377223V0h4.27924078zM14.5857864 0L2.28824561 12.2975408 6.38742589 0h8.19836051zM180 17.4142136L162.585786 0H180v17.4142136zM165.414214 0l12.29754 12.2975408L173.612574 0h-8.19836zM180 12.8377223L175.720759 0H180v12.8377223zM0 163h16.4142136l.5.5 7.2928932 7.292893L25.4142136 172l-8 8H0v-17zm0 10h6.61257411l-2.33333333 7H0v-7zm14.5857864 7l7-7H8.72075922l-2.33333333 7h8.19836051zM0 165.414214L5.58578644 171H0v-5.585786zM10.4142136 171L16 165.414214 21.5857864 171H10.4142136zm-8.00000004-6H13.5857864L8 170.585786 2.41421356 165zM180 163h-16.414214l-7.792893 7.792893L154.585786 172l8 8H180v-17zm-14.585786 17l-7-7h12.865027l2.333333 7h-8.19836zM180 173h-6.612574l2.333333 7H180v-7zm-21.585786-2L164 165.414214 169.585786 171h-11.171572zM180 165.414214L174.414214 171H180v-5.585786zm-8 5.171572L177.585786 165h-11.171572L172 170.585786zM152.932504 25.6532829l1.414213 1.4142136-33.941125 33.9411255-1.414214-1.4142136 33.941126-33.9411255zm1.414213 127.2792211l-1.414213 1.414213-33.941126-33.941125 1.414214-1.414214 33.941125 33.941126zm-127.2792205 1.414213l-1.4142136-1.414213 33.9411255-33.941126 1.4142136 1.414214-33.9411255 33.941125zM25.6532829 27.0674965l1.4142136-1.4142136L61.008622 59.5944084l-1.4142136 1.4142136-33.9411255-33.9411255zM0 85c2.209139 0 4 1.790861 4 4s-1.790861 4-4 4v-8zm180 0c-2.209139 0-4 1.790861-4 4s1.790861 4 4 4v-8zM94 0c0 2.209139-1.790861 4-4 4s-4-1.790861-4-4h8zm0 180c0-2.209139-1.790861-4-4-4s-4 1.790861-4 4h8z" class="color000 svgShape"/></svg></svg>

<svg id="SvgjsSvg1016" width="288" height="288" xmlns="http://www.w3.org/2000/svg" version="1.1" xmlns:xlink="http://www.w3.org/1999/xlink" xmlns:svgjs="http://svgjs.com/svgjs"><defs id="SvgjsDefs1017"></defs><g id="SvgjsG1018"><svg xmlns="http://www.w3.org/2000/svg" width="288" height="288" viewBox="0 0 180 180"><path fill="#6246ea" fill-rule="evenodd" d="M81.2792408,88 L68.4142136,88 L87.7117544,107.297541 L81.2792408,88 L81.2792408,88 Z M83.3874259,88 L96.6125741,88 L90,107.837722 L83.3874259,88 L83.3874259,88 Z M98.7207592,88 L111.585786,88 L92.2882456,107.297541 L98.7207592,88 L98.7207592,88 Z M65.7928932,85.7928932 L73.5857864,78 L75.2071068,78 L105.792893,78 L106.414214,78 L106.914214,78.5 L114.207107,85.7928932 L115.414214,87 L90.7071068,111.707107 L90,112.414214 L64.5857864,87 L64.5857864,87 L65.7928932,85.7928932 L65.7928932,85.7928932 Z M68.4142136,86 L74,80.4142136 L79.5857864,86 L68.4142136,86 L68.4142136,86 Z M84.4142136,86 L90,80.4142136 L95.5857864,86 L84.4142136,86 L84.4142136,86 Z M100.414214,86 L106,80.4142136 L111.585786,86 L100.414214,86 L100.414214,86 Z M92.4142136,80 L103.585786,80 L98,85.5857864 L92.4142136,80 L92.4142136,80 Z M82,85.5857864 L87.5857864,80 L76.4142136,80 L82,85.5857864 L82,85.5857864 Z M17.4142136,0 L0.707106781,16.7071068 L0,17.4142136 L0,0 L17.4142136,0 L17.4142136,0 Z M4.27924078,0 L0,12.8377223 L0,0 L4.27924078,0 L4.27924078,0 Z M14.5857864,0 L2.28824561,12.2975408 L6.38742589,0 L14.5857864,0 L14.5857864,0 Z M180,17.4142136 L162.585786,0 L180,0 L180,17.4142136 L180,17.4142136 Z M165.414214,0 L177.711754,12.2975408 L173.612574,0 L165.414214,0 Z M180,12.8377223 L175.720759,0 L180,0 L180,12.8377223 L180,12.8377223 Z M1.42108547e-14,163 L15.7928932,163 L16.4142136,163 L16.9142136,163.5 L24.2071068,170.792893 L25.4142136,172 L17.4142136,180 L0,180 L0,163 L1.42108547e-14,163 Z M0,173 L6.61257411,173 L4.27924078,180 L0,180 L0,173 Z M14.5857864,180 L21.5857864,173 L8.72075922,173 L6.38742589,180 L14.5857864,180 Z M2.4158453e-13,165.414214 L5.58578644,171 L0,171 L0,165.414214 L2.4158453e-13,165.414214 Z M10.4142136,171 L16,165.414214 L21.5857864,171 L10.4142136,171 Z M2.41421356,165 L13.5857864,165 L8,170.585786 L2.41421356,165 Z M180,163 L165.207107,163 L163.585786,163 L155.792893,170.792893 L155.792893,170.792893 L154.585786,172 L162.585786,180 L180,180 L180,163 Z M165.414214,180 L158.414214,173 L171.279241,173 L173.612574,180 L165.414214,180 Z M180,173 L173.387426,173 L175.720759,180 L180,180 L180,173 Z M158.414214,171 L164,165.414214 L169.585786,171 L158.414214,171 Z M180,165.414214 L174.414214,171 L180,171 L180,165.414214 Z M172,170.585786 L177.585786,165 L166.414214,165 L172,170.585786 Z M152.932504,25.6532829 L154.346717,27.0674965 L120.405592,61.008622 L118.991378,59.5944084 L152.932504,25.6532829 Z M154.346717,152.932504 L152.932504,154.346717 L118.991378,120.405592 L120.405592,118.991378 L154.346717,152.932504 Z M27.0674965,154.346717 L25.6532829,152.932504 L59.5944084,118.991378 L61.008622,120.405592 L27.0674965,154.346717 Z M25.6532829,27.0674965 L27.0674965,25.6532829 L61.008622,59.5944084 L59.5944084,61.008622 L25.6532829,27.0674965 Z M0,85 C2.209139,85 4,86.790861 4,89 C4,91.209139 2.209139,93 0,93 L0,85 Z M180,85 C177.790861,85 176,86.790861 176,89 C176,91.209139 177.790861,93 180,93 L180,85 Z M94,0 C94,2.209139 92.209139,4 90,4 C87.790861,4 86,2.209139 86,0 L94,0 Z M94,180 C94,177.790861 92.209139,176 90,176 C87.790861,176 86,177.790861 86,180 L94,180 Z" class="color000 svgShape"></path></svg></g></svg>
